src/img/icons/graph.svg

<?xml version="1.0" encoding="UTF-8"?>
<svg width="30px" height="14px" viewBox="0 0 30 14" version="1.1" xmlns="http://www.w3.org/2000/svg" xmlns:xlink="http://www.w3.org/1999/xlink">
    <!-- Generator: Sketch 49.3 (51167) - http://www.bohemiancoding.com/sketch -->
    <title>line-chart</title>
    <desc>Created with Sketch.</desc>
    <defs></defs>
    <g id="Welcome" stroke="none" stroke-width="1" fill="none" fill-rule="evenodd">
        <g id="3-submission-1440" transform="translate(-1076.000000, -402.000000)" fill="#000000" fill-rule="nonzero">
            <g id="Group-3" transform="translate(973.000000, 389.000000)">
                <g id="Group-7">
                    <g id="line-chart" transform="translate(103.000000, 13.000000)">
                        <path d="M26.2578607,0.0390737705 C24.5379262,0.0390737705 23.1386721,1.43832787 23.1386721,3.1582623 C23.1386721,3.78556557 23.3254344,4.36972131 23.6453689,4.85931967 L20.2754426,8.2292459 C19.7857869,7.90931148 19.2016311,7.72254918 18.5743279,7.72254918 C17.9243033,7.72254918 17.3201803,7.92268033 16.8199672,8.2642459 L13.4153279,4.85909016 C13.7352049,4.3694918 13.9218525,3.78539344 13.9218525,3.15820492 C13.9218525,1.43827049 12.5225984,0.0390163934 10.8026639,0.0390163934 C9.08272951,0.0390163934 7.68347541,1.43827049 7.68347541,3.15820492 C7.68347541,3.78539344 7.87018033,4.36931967 8.18994262,4.85891803 L4.81990164,8.22901639 C4.33036066,7.90919672 3.74631967,7.72254918 3.11918852,7.72254918 C1.3992541,7.72254918 0,9.12186066 0,10.8417951 C0,12.5617295 1.3992541,13.9609836 3.11918852,13.9609836 C4.83912295,13.9609836 6.23837705,12.5617295 6.23837705,10.8417951 C6.23837705,10.2144918 6.05161475,9.63033607 5.73168033,9.14068033 L9.10160656,5.7707541 C9.5912623,6.09068852 10.175418,6.27745082 10.8027213,6.27745082 C11.4299672,6.27745082 12.014123,6.09068852 12.5037213,5.7707541 L15.9271803,9.19467213 C15.6284754,9.67308197 15.4551967,10.2374426 15.4551967,10.8417377 C15.4551967,12.5616721 16.8544508,13.9609262 18.5743852,13.9609262 C20.2943197,13.9609262 21.6935738,12.5616721 21.6935738,10.8417377 C21.6935738,10.2145492 21.5068689,9.63056557 21.1871066,9.14102459 L24.5572049,5.77092623 C25.0468033,6.0907459 25.6308443,6.27739344 26.257918,6.27739344 C27.9778525,6.27739344 29.3771066,4.87813934 29.3771066,3.15820492 C29.3771066,1.43821311 27.9777951,0.0390737705 26.2578607,0.0390737705 Z M3.11918852,12.6716639 C2.11015574,12.6716639 1.2892623,11.8507705 1.2892623,10.8417951 C1.2892623,9.8327623 2.11015574,9.01186885 3.11918852,9.01186885 C4.12816393,9.01186885 4.94911475,9.8327623 4.94911475,10.8417951 C4.94911475,11.8507705 4.12822131,12.6716639 3.11918852,12.6716639 Z M10.8027213,4.98813115 C9.7937459,4.98813115 8.97279508,4.1672377 8.97279508,3.15820492 C8.97279508,2.14922951 9.79368852,1.32827869 10.8027213,1.32827869 C11.8117541,1.32827869 12.6326475,2.14917213 12.6326475,3.15820492 C12.6326475,4.1672377 11.8117541,4.98813115 10.8027213,4.98813115 Z M18.5743279,12.6716639 C17.5653525,12.6716639 16.7444016,11.8507705 16.7444016,10.8417377 C16.7444016,9.83270492 17.5652951,9.01181148 18.5743279,9.01181148 C19.5833033,9.01181148 20.4042541,9.83270492 20.4042541,10.8417377 C20.4041967,11.8507705 19.5833033,12.6716639 18.5743279,12.6716639 Z M26.2578607,4.98813115 C25.2488852,4.98813115 24.4279344,4.1672377 24.4279344,3.15820492 C24.4279344,2.14922951 25.2488279,1.32827869 26.2578607,1.32827869 C27.2668361,1.32827869 28.0877869,2.14917213 28.0877869,3.15820492 C28.0877869,4.1672377 27.2668361,4.98813115 26.2578607,4.98813115 Z" id="Shape"></path>
                        <path d="M10.1427705,7.95917213 C9.891,7.70745902 9.48287705,7.70745902 9.23110656,7.95917213 L7.91981148,9.27046721 C7.66809836,9.52218033 7.66809836,9.93036066 7.91986885,10.1821311 C8.0457541,10.3080164 8.21071311,10.370959 8.37567213,10.370959 C8.54063115,10.370959 8.70564754,10.307959 8.83147541,10.1821311 L10.1427705,8.87083607 C10.3945984,8.61912295 10.3945984,8.21088525 10.1427705,7.95917213 Z" id="Shape"></path>
                        <path d="M21.4568361,3.8407623 C21.2050656,3.58904918 20.797,3.58904918 20.5451148,3.84081967 L19.2338197,5.15211475 C18.9821066,5.40382787 18.9821066,5.8120082 19.2338197,6.06377869 C19.3597623,6.18960656 19.5247213,6.25254918 19.6896803,6.25254918 C19.8546967,6.25254918 20.0195984,6.18954918 20.1454836,6.06372131 L21.4567787,4.75242623 C21.7085492,4.50065574 21.7085492,4.09247541 21.4568361,3.8407623 Z" id="Shape"></path>
                    </g>
                </g>
            </g>
        </g>
    </g>
</svg>

<svg width="30" height="14" xmlns="http://www.w3.org/2000/svg"><path d="M26.258.04a3.122 3.122 0 00-3.12 3.118 3.1 3.1 0 00.507 1.701l-3.37 3.37a3.1 3.1 0 00-1.7-.506c-.65 0-1.255.2-1.755.541L13.415 4.86a3.1 3.1 0 00.507-1.7c0-1.72-1.4-3.12-3.12-3.12-1.72 0-3.119 1.4-3.119 3.12a3.1 3.1 0 00.507 1.7L4.82 8.23a3.1 3.1 0 00-1.7-.506A3.122 3.122 0 000 10.842c0 1.72 1.4 3.119 3.12 3.119 1.72 0 3.118-1.4 3.118-3.12a3.1 3.1 0 00-.506-1.7l3.37-3.37a3.1 3.1 0 001.7.506 3.1 3.1 0 001.702-.506l3.423 3.424a3.1 3.1 0 00-.472 1.647c0 1.72 1.4 3.119 3.12 3.119 1.72 0 3.119-1.4 3.119-3.12a3.1 3.1 0 00-.507-1.7l3.37-3.37a3.1 3.1 0 001.7.506c1.72 0 3.12-1.399 3.12-3.119 0-1.72-1.4-3.119-3.12-3.119zM3.119 12.671a1.832 1.832 0 01-1.83-1.83 1.83 1.83 0 111.83 1.83zm7.684-7.684a1.83 1.83 0 010-3.66c1.009 0 1.83.821 1.83 1.83 0 1.01-.821 1.83-1.83 1.83zm7.771 7.684a1.832 1.832 0 01-1.83-1.83 1.83 1.83 0 111.83 1.83zm7.684-7.684a1.83 1.83 0 010-3.66c1.009 0 1.83.821 1.83 1.83 0 1.01-.821 1.83-1.83 1.83z"/><path d="M10.143 7.96a.645.645 0 00-.912 0L7.92 9.27a.645.645 0 00.911.912l1.312-1.311a.645.645 0 000-.912zm11.314-4.12a.645.645 0 00-.912 0l-1.311 1.312a.645.645 0 00.911.912l1.312-1.312a.645.645 0 000-.911z"/></svg>
